images/transmission.svg

<!DOCTYPE svg PUBLIC "-//W3C//DTD SVG 1.1//EN" "http://www.w3.org/Graphics/SVG/1.1/DTD/svg11.dtd">
<!-- Uploaded to: SVG Repo, www.svgrepo.com, Transformed by: SVG Repo Mixer Tools -->
<svg width="800px" height="800px" viewBox="0 0 24 24" fill="none" xmlns="http://www.w3.org/2000/svg">
<g id="SVGRepo_bgCarrier" stroke-width="0"/>
<g id="SVGRepo_tracerCarrier" stroke-linecap="round" stroke-linejoin="round"/>
<g id="SVGRepo_iconCarrier"> <path d="M2 4C2 2.89543 2.89543 2 4 2C5.10457 2 6 2.89543 6 4C6 4.83934 5.48296 5.55793 4.75 5.85462V11.25H11.25V5.85462C10.517 5.55793 10 4.83934 10 4C10 2.89543 10.8954 2 12 2C13.1046 2 14 2.89543 14 4C14 4.83934 13.483 5.55793 12.75 5.85462V11.25H16C16.964 11.25 17.6116 11.2484 18.0946 11.1835C18.5561 11.1214 18.7536 11.0142 18.8839 10.8839C19.0142 10.7536 19.1214 10.5561 19.1835 10.0946C19.2484 9.61157 19.25 8.96401 19.25 8V5.85462C18.517 5.55793 18 4.83934 18 4C18 2.89543 18.8954 2 20 2C21.1046 2 22 2.89543 22 4C22 4.83934 21.483 5.55793 20.75 5.85462V8.05199C20.75 8.95048 20.7501 9.6997 20.6701 10.2945C20.5857 10.9223 20.4 11.4891 19.9445 11.9445C19.4891 12.4 18.9223 12.5857 18.2945 12.6701C17.6997 12.7501 16.9505 12.75 16.052 12.75L12.75 12.75L12.75 18.1454C13.483 18.4421 14 19.1607 14 20C14 21.1046 13.1046 22 12 22C10.8954 22 10 21.1046 10 20C10 19.1607 10.517 18.4421 11.25 18.1454V12.75H4.75V18.1454C5.48296 18.4421 6 19.1607 6 20C6 21.1046 5.10457 22 4 22C2.89543 22 2 21.1046 2 20C2 19.1607 2.51704 18.4421 3.25 18.1454V5.85462C2.51704 5.55793 2 4.83934 2 4Z" fill="#d5282b"/> <path opacity="0.5" fill-rule="evenodd" clip-rule="evenodd" d="M17.25 15C17.25 14.5858 17.5858 14.25 18 14.25H20.2857C21.6612 14.25 22.75 15.3839 22.75 16.75C22.75 17.8285 22.0713 18.7624 21.1086 19.1077L22.6396 21.6084C22.8559 21.9616 22.7449 22.4234 22.3916 22.6396C22.0384 22.8559 21.5766 22.7449 21.3604 22.3916L19.4369 19.25H18.75V22C18.75 22.4142 18.4142 22.75 18 22.75C17.5858 22.75 17.25 22.4142 17.25 22V15ZM18.75 17.75H20.2857C20.8038 17.75 21.25 17.3169 21.25 16.75C21.25 16.1831 20.8038 15.75 20.2857 15.75H18.75V17.75Z" fill="#d5282b"/> </g>
</svg>

<svg width="800" height="800" viewBox="0 0 24 24" fill="none" xmlns="http://www.w3.org/2000/svg"><g fill="#d5282b"><path d="M2 4a2 2 0 1 1 2.75 1.855v5.395h6.5V5.855a2 2 0 1 1 1.5 0v5.395H16c.964 0 1.612-.002 2.095-.066.461-.063.659-.17.789-.3.13-.13.237-.328.3-.79.064-.482.066-1.13.066-2.094V5.855a2 2 0 1 1 1.5 0v2.197c0 .898 0 1.648-.08 2.242-.084.628-.27 1.195-.726 1.65-.455.456-1.022.642-1.65.726-.594.08-1.343.08-2.242.08H12.75v5.395a2 2 0 1 1-1.5 0V12.75h-6.5v5.395a2 2 0 1 1-1.5 0V5.855A2 2 0 0 1 2 4Z"/><path opacity=".5" fill-rule="evenodd" clip-rule="evenodd" d="M17.25 15a.75.75 0 0 1 .75-.75h2.286c1.375 0 2.464 1.134 2.464 2.5a2.502 2.502 0 0 1-1.641 2.358l1.53 2.5a.75.75 0 1 1-1.279.784l-1.923-3.142h-.687V22a.75.75 0 0 1-1.5 0v-7Zm1.5 2.75h1.536c.518 0 .964-.433.964-1s-.446-1-.964-1H18.75v2Z"/></g></svg>
